build/category/WatcherTestITSolid.svg

<svg xmlns="http://www.w3.org/2000/svg" fill="none" viewBox="0 0 24 24" focusable="false"><path d="M0 0H24V24H0z"/><path fill="#74767B" fill-rule="evenodd" d="M7 4C5.34315 4 4 5.34315 4 7L4 17C4 18.6569 5.34315 20 7 20L11.2022 20C11.4275 20 11.575 19.7588 11.5019 19.5457C11.3402 19.0742 11.2892 18.575 11.35 18.0857L11.35 8.30001L8.66504 8.30001C8.30605 8.30001 8.01504 8.009 8.01504 7.65001C8.01504 7.29103 8.30605 7.00001 8.66504 7.00001L15.3348 7.00001C15.6938 7.00001 15.9848 7.29103 15.9848 7.65001C15.9848 8.009 15.6938 8.30001 15.3348 8.30001L12.65 8.30001L12.65 15.7585C13.6432 14.7438 15.1923 13.6624 17.2986 13.6624C18.1401 13.6624 18.893 13.835 19.5572 14.1069C19.7639 14.1915 20 14.0453 20 13.822L20 7C20 5.34315 18.6569 4 17 4L7 4ZM21.5453 17.2666C22.128 17.9944 22.1211 19.0015 21.5344 19.726C20.7173 20.735 19.3026 22 17.345 22C15.3839 22 13.9713 20.7305 13.1579 19.7206C12.5763 18.9985 12.5695 17.9975 13.147 17.2721C13.9502 16.2634 15.3537 14.9998 17.345 14.9998C19.3327 14.9998 20.7385 16.2588 21.5453 17.2666ZM19.3503 18.4999C19.3503 19.6045 18.4549 20.5 17.3503 20.5C16.2457 20.5 15.3502 19.6045 15.3502 18.4999C15.3502 17.3953 16.2457 16.4999 17.3503 16.4999C18.4549 16.4999 19.3503 17.3953 19.3503 18.4999Z"/></svg>

<svg xmlns="http://www.w3.org/2000/svg" fill="none" viewBox="0 0 24 24" focusable="false"><path fill="#74767B" fill-rule="evenodd" d="M7 4C5.34 4 4 5.34 4 7v10c0 1.65 1.34 3 3 3h4.2c.22 0 .37-.25.3-.46-.16-.47-.22-.97-.15-1.46V8.3H8.66c-.36 0-.65-.3-.65-.65 0-.36.29-.65.65-.65h6.67c.36 0 .65.29.65.65 0 .35-.29.65-.65.65h-2.69v7.45c1-1.01 2.55-2.09 4.65-2.09.85 0 1.6.17 2.26.44.21.09.45-.06.45-.28V7c0-1.66-1.35-3-3-3zm14.53 15.72c.59-.72.59-1.73.01-2.46-.81-1.01-2.21-2.27-4.2-2.27s-3.39 1.27-4.2 2.28c-.58.72-.57 1.72.01 2.45.82 1.01 2.23 2.28 4.19 2.28s3.37-1.27 4.19-2.28m-4.18.78a2.006 2.006 0 0 0 0-4.01 2 2 0 0 0-2 2c0 1.11.89 2.01 2 2.01"/></svg>
